X: 0
T: McGoldrick's
C: Mike McGoldrick
R: jig
M: 6/8
L: 1/8
K: Dmaj
||e|~f3 efg|fdA GFE|FAd GBe | FAd B/c/de |
~f3 efg|fdA GFE|FAd GBe| Adc d2:|
A|~B3 BAB|~f3 fec|~e3 fec|Ace fec|~B3 BAB|
~f3 fec|1 ~e3 fec|BcA B2:|2 ~e3 fec|~g3 a2|| 